packages/ffe-icons/icons/open/300/md/camera_front.svg

<svg xmlns="http://www.w3.org/2000/svg" height="24" viewBox="0 -960 960 960" width="24"><path d="M415.849-170.001H250.001q-12.75 0-21.375-8.628-8.625-8.629-8.625-21.384 0-12.756 8.625-21.371 8.625-8.615 21.375-8.615h165.848l-32.925-32.925q-8.307-8.307-8.5-20.884-.192-12.576 8.5-21.268 8.692-8.693 21.077-8.693 12.384 0 21.076 8.693l79.769 79.769q10.846 10.846 10.846 25.307 0 14.461-10.846 25.307l-79.769 79.77q-8.307 8.307-20.884 8.5-12.577.192-21.269-8.5-8.692-8.693-8.692-21.077 0-12.384 8.692-21.076l32.925-32.925Zm-195.848-617.69q0-30.308 21-51.308t51.308-21h375.382q30.308 0 51.308 21t21 51.308v477.692q0 12.749-8.629 21.374Q722.741-280 709.986-280q-12.756 0-21.371-8.625Q680-297.25 680-309.999v-44.31q-38.846-25.922-92.039-40.422-53.192-14.5-107.961-14.5t-107.961 14.5q-53.193 14.5-92.039 40.422v44.31q0 12.749-8.629 21.374Q262.743-280 249.987-280q-12.755 0-21.37-8.625-8.616-8.625-8.616-21.374v-477.692ZM280-423.23q46.461-21.846 98.692-33.923Q430.923-469.23 480-469.23q49.077 0 101.308 12.077Q633.539-445.076 680-423.23v-364.461q0-4.616-3.846-8.463-3.847-3.846-8.463-3.846H292.309q-4.616 0-8.463 3.846-3.846 3.847-3.846 8.463v364.461Zm309.999 253.229q-12.749 0-21.374-8.628Q560-187.258 560-200.013q0-12.756 8.625-21.371 8.625-8.615 21.374-8.615h120q12.75 0 21.375 8.628 8.625 8.629 8.625 21.384 0 12.756-8.625 21.371-8.625 8.615-21.375 8.615h-120ZM480-409.231Zm.045-111.538q-45.814 0-77.929-32.07t-32.115-77.884q0-45.814 32.07-77.93 32.07-32.115 77.884-32.115t77.929 32.07q32.115 32.07 32.115 77.884t-32.07 77.93q-32.07 32.115-77.884 32.115ZM480-580.768q20.846 0 35.424-14.577 14.577-14.577 14.577-35.424 0-20.846-14.577-35.423-14.578-14.577-35.424-14.577t-35.424 14.577q-14.577 14.577-14.577 35.423 0 20.847 14.577 35.424 14.578 14.577 35.424 14.577Zm0-50.001Z"/></svg>

<svg xmlns="http://www.w3.org/2000/svg" height="24" viewBox="0 -960 960 960" width="24"><path d="M415.85-170H250q-12.75 0-21.37-8.63-8.63-8.63-8.63-21.38 0-12.76 8.63-21.37Q237.25-230 250-230h165.85l-32.93-32.92q-8.3-8.31-8.5-20.89-.19-12.57 8.5-21.27 8.7-8.69 21.08-8.69 12.39 0 21.08 8.69l79.77 79.77q10.84 10.85 10.84 25.31 0 14.46-10.84 25.31l-79.77 79.77q-8.31 8.3-20.89 8.5-12.57.19-21.27-8.5-8.69-8.7-8.69-21.08 0-12.38 8.69-21.08L415.85-170ZM220-787.69Q220-818 241-839q21-21 51.31-21h375.38Q698-860 719-839q21 21 21 51.31V-310q0 12.75-8.63 21.38-8.63 8.62-21.38 8.62-12.76 0-21.37-8.62Q680-297.25 680-310v-44.31q-38.85-25.92-92.04-40.42-53.19-14.5-107.96-14.5-54.77 0-107.96 14.5-53.19 14.5-92.04 40.42V-310q0 12.75-8.63 21.38-8.63 8.62-21.38 8.62-12.76 0-21.37-8.62Q220-297.25 220-310v-477.69Zm60 364.46q46.46-21.85 98.69-33.92 52.23-12.08 101.31-12.08 49.08 0 101.31 12.08 52.23 12.07 98.69 33.92v-364.46q0-4.62-3.85-8.46-3.84-3.85-8.46-3.85H292.31q-4.62 0-8.46 3.85-3.85 3.84-3.85 8.46v364.46ZM590-170q-12.75 0-21.38-8.63-8.62-8.63-8.62-21.38 0-12.76 8.62-21.37Q577.25-230 590-230h120q12.75 0 21.37 8.63 8.63 8.63 8.63 21.38 0 12.76-8.63 21.37Q722.75-170 710-170H590ZM480-409.23Zm.05-111.54q-45.82 0-77.93-32.07Q370-584.91 370-630.72q0-45.82 32.07-77.93 32.07-32.12 77.88-32.12 45.82 0 77.93 32.07Q590-676.63 590-630.81q0 45.81-32.07 77.93-32.07 32.11-77.88 32.11Zm-.05-60q20.85 0 35.42-14.57Q530-609.92 530-630.77q0-20.84-14.58-35.42-14.57-14.58-35.42-14.58t-35.42 14.58Q430-651.61 430-630.77q0 20.85 14.58 35.43 14.57 14.57 35.42 14.57Zm0-50Z"/></svg>
